**kern	**kern	**dynam
*part1	*part1	*part1
*staff2	*staff1	*
*I"Piano	*	*
*clefG2	*clefG2	*
*k[f#c#g#]	*k[f#c#g#]	*
=1	=1	=1
*^	*^	*
!	!	!LO:TX:a:t=ritard.	!	!
4f#	4.d	4ff#	4.b 4.bb	>
8fn	.	8ffn	.	.
4.e	4.e	4.gg#X	8g#XL 8ee	.
.	.	.	8cc#	.
.	.	.	8bJ 8dd	.
*v	*v	*	*	*
*	*v	*v	*
=	=	=
4A) 4e	4cc#) 4aa	]
(8A	8r	.
(4.d) 4.e 4.b	(4.g# 4.ee	p <
=	=	=
4c#) 4a	4a) 4aa	[ >
*clefF4	*	*
(8cn 8d#X	(8a	.
4.E 4.B 4.dn	4.g# 4.ee	] >
=	=	=
4A) 4c#	4a)	.
!	!	!LO:DY:a
(8AA	8r	] <
(4.D) 4.E 4.B	(4.G# 4.e	pp [[
=	=	=
4C#) 4A	4A) 4a	>
(8Cn 8D#X	(8A	.
[4.EE) [4.BB [4.Dn	[4.G#) [4.e	] <
=	=	=
2.EE] 2.BB] 2.D]	2.G#] 2.e]	>
=	=	=
4AA 4C#	4A	]
8r	8r	]
4AA' 4E	4A' 4c#	.
8r	8r	.
==	==	==
*-	*-	*-
!!!system-decoration: {(s1,s2)}
